X:1
T:Coffee
R:Jig
C:Gary Haggerty
M:6/8
%%printtempo 0
Q:200
K:Ador
%%printtempo 0
"Am"EAA GAA|cBA eAA|EAA GAA|"Em"cBA ABA|
"Am"EAA GAA|cBA eAA|"F"cBA "Em"ABA|GED "Am"A3:|
|:"Am"A,2 C EGA|cBA GED|"G"A,2 C EGA|cBA A3|
"Am"A,2C EGA|"G"d2Lc- "Am"cAG|"G"d2Lc- "Am"cAG|"Em"EDE "Am"A3:|
